public/assets/images/whatsapp.svg

<svg width="30" height="30" viewBox="0 0 30 30" fill="none" xmlns="http://www.w3.org/2000/svg">
<circle cx="14.8933" cy="14.8933" r="14.8933" fill="#1BD741"/>
<path fill-rule="evenodd" clip-rule="evenodd" d="M6.40069 20.0306L5 25L10.1303 23.6808C11.6167 24.5139 13.297 24.9527 15.0129 24.9527C20.5198 24.9527 25 20.4773 25 14.9763C25 9.47537 20.5198 5 15.0129 5C9.50595 5 5.02573 9.47537 5.02573 14.9763C5.02573 16.7629 5.49996 18.5021 6.40069 20.0306ZM10.6983 22.0523L10.3926 21.8658L7.4286 22.628L8.23521 19.7662L8.02934 19.446C7.17272 18.1135 6.71988 16.5679 6.71988 14.9763C6.71988 10.4085 10.4401 6.69232 15.0129 6.69232C19.5857 6.69232 23.3058 10.4085 23.3058 14.9763C23.3058 19.5442 19.5857 23.2604 15.0129 23.2604C13.4863 23.2604 11.9943 22.8426 10.6983 22.0523Z" fill="white"/>
<path d="M12.4336 11.0347L11.7308 11.0011C11.51 10.9906 11.2935 11.0552 11.1266 11.1823C10.7859 11.4417 10.241 11.9431 10.0737 12.5966C9.82415 13.5709 10.2098 14.764 11.2079 15.9571C12.2061 17.1502 14.0662 19.0591 17.3554 19.8744C18.4153 20.1371 19.2491 19.96 19.8924 19.5993C20.4019 19.3136 20.7531 18.855 20.8797 18.3366L20.9919 17.8772C21.0276 17.7311 20.943 17.583 20.7882 17.5204L18.4128 16.5607C18.2586 16.4984 18.0758 16.5378 17.9721 16.6556L17.0395 17.7153C16.9691 17.7953 16.8485 17.8271 16.7396 17.7935C16.101 17.5968 13.9618 16.8114 12.7881 14.8295C12.7372 14.7435 12.7498 14.6392 12.822 14.5659L13.7132 13.6621C13.8043 13.5698 13.8273 13.4401 13.7726 13.3279L12.7487 11.228C12.6941 11.1162 12.572 11.0413 12.4336 11.0347Z" fill="white"/>
</svg>

<svg xmlns="http://www.w3.org/2000/svg" width="30" height="30" fill="none"><circle cx="14.893" cy="14.893" r="14.893" fill="#1BD741"/><path fill="#fff" fill-rule="evenodd" d="M6.4 20.03 5 25l5.13-1.32a9.983 9.983 0 0 0 4.883 1.273c5.507 0 9.987-4.476 9.987-9.977C25 9.476 20.52 5 15.013 5s-9.987 4.475-9.987 9.976c0 1.787.474 3.526 1.375 5.055Zm4.298 2.022-.305-.186-2.964.762.806-2.862-.206-.32a8.248 8.248 0 0 1-1.31-4.47c0-4.568 3.721-8.284 8.294-8.284s8.293 3.716 8.293 8.284c0 4.568-3.72 8.284-8.293 8.284a8.283 8.283 0 0 1-4.315-1.208Z" clip-rule="evenodd"/><path fill="#fff" d="M12.434 11.035 11.73 11a.928.928 0 0 0-.604.181c-.341.26-.886.761-1.053 1.415-.25.974.136 2.167 1.134 3.36.998 1.193 2.858 3.102 6.147 3.917 1.06.263 1.894.086 2.537-.275.51-.285.861-.744.988-1.262l.112-.46c.036-.146-.049-.294-.204-.357l-2.375-.96a.398.398 0 0 0-.44.096l-.933 1.06a.29.29 0 0 1-.3.078c-.639-.197-2.778-.983-3.952-2.965a.214.214 0 0 1 .034-.263l.891-.904a.289.289 0 0 0 .06-.334l-1.024-2.1a.366.366 0 0 0-.315-.193Z"/></svg>
